FINK
CUT[WENN ICH IHN NUR HABE]
REG[Europa, Mitteleuropa, Deutschland]
KEY[F1011  08 Db 4/4]
MEL[  5_5_+3_+2_  +1__5__
    5_+1_7_4#_  5__.0_
    5#_5#_6_+1_  +3_+2_+2_.+1  7__
    6_7_  +1_6_5_4#_  5__0__
    5_5_6_3_  5__4__
    3_1_4_2_  5_3_6_
    1_  1__2__  1__0__ //] >>
FCT[Erbauungs - Lied, religioes]
